portfolio/static/icons/instagram-black-icon.svg

<?xml version="1.0" encoding="utf-8"?><!-- Uploaded to: SVG Repo, www.svgrepo.com, Generator: SVG Repo Mixer Tools -->
<svg width="24px" height="24px" viewBox="0 0 24 24" fill="none" xmlns="http://www.w3.org/2000/svg">
<path fill-rule="evenodd" clip-rule="evenodd" d="M12 18C15.3137 18 18 15.3137 18 12C18 8.68629 15.3137 6 12 6C8.68629 6 6 8.68629 6 12C6 15.3137 8.68629 18 12 18ZM12 16C14.2091 16 16 14.2091 16 12C16 9.79086 14.2091 8 12 8C9.79086 8 8 9.79086 8 12C8 14.2091 9.79086 16 12 16Z" fill="#0F0F0F"/>
<path d="M18 5C17.4477 5 17 5.44772 17 6C17 6.55228 17.4477 7 18 7C18.5523 7 19 6.55228 19 6C19 5.44772 18.5523 5 18 5Z" fill="#0F0F0F"/>
<path fill-rule="evenodd" clip-rule="evenodd" d="M1.65396 4.27606C1 5.55953 1 7.23969 1 10.6V13.4C1 16.7603 1 18.4405 1.65396 19.7239C2.2292 20.8529 3.14708 21.7708 4.27606 22.346C5.55953 23 7.23969 23 10.6 23H13.4C16.7603 23 18.4405 23 19.7239 22.346C20.8529 21.7708 21.7708 20.8529 22.346 19.7239C23 18.4405 23 16.7603 23 13.4V10.6C23 7.23969 23 5.55953 22.346 4.27606C21.7708 3.14708 20.8529 2.2292 19.7239 1.65396C18.4405 1 16.7603 1 13.4 1H10.6C7.23969 1 5.55953 1 4.27606 1.65396C3.14708 2.2292 2.2292 3.14708 1.65396 4.27606ZM13.4 3H10.6C8.88684 3 7.72225 3.00156 6.82208 3.0751C5.94524 3.14674 5.49684 3.27659 5.18404 3.43597C4.43139 3.81947 3.81947 4.43139 3.43597 5.18404C3.27659 5.49684 3.14674 5.94524 3.0751 6.82208C3.00156 7.72225 3 8.88684 3 10.6V13.4C3 15.1132 3.00156 16.2777 3.0751 17.1779C3.14674 18.0548 3.27659 18.5032 3.43597 18.816C3.81947 19.5686 4.43139 20.1805 5.18404 20.564C5.49684 20.7234 5.94524 20.8533 6.82208 20.9249C7.72225 20.9984 8.88684 21 10.6 21H13.4C15.1132 21 16.2777 20.9984 17.1779 20.9249C18.0548 20.8533 18.5032 20.7234 18.816 20.564C19.5686 20.1805 20.1805 19.5686 20.564 18.816C20.7234 18.5032 20.8533 18.0548 20.9249 17.1779C20.9984 16.2777 21 15.1132 21 13.4V10.6C21 8.88684 20.9984 7.72225 20.9249 6.82208C20.8533 5.94524 20.7234 5.49684 20.564 5.18404C20.1805 4.43139 19.5686 3.81947 18.816 3.43597C18.5032 3.27659 18.0548 3.14674 17.1779 3.0751C16.2777 3.00156 15.1132 3 13.4 3Z" fill="#0F0F0F"/>
</svg>

<svg width="24" height="24" xmlns="http://www.w3.org/2000/svg" fill="currentColor">
  <path fill-rule="evenodd" clip-rule="evenodd" d="M12 18a6 6 0 1 0 0-12 6 6 0 0 0 0 12Zm0-2a4 4 0 1 0 0-8 4 4 0 0 0 0 8Z" />
  <path d="M18 5a1 1 0 1 0 0 2 1 1 0 0 0 0-2Z" />
  <path fill-rule="evenodd" clip-rule="evenodd" d="M1.654 4.276C1 5.56 1 7.24 1 10.6v2.8c0 3.36 0 5.04.654 6.324a6 6 0 0 0 2.622 2.622C5.56 23 7.24 23 10.6 23h2.8c3.36 0 5.04 0 6.324-.654a6 6 0 0 0 2.622-2.622C23 18.44 23 16.76 23 13.4v-2.8c0-3.36 0-5.04-.654-6.324a6 6 0 0 0-2.622-2.622C18.44 1 16.76 1 13.4 1h-2.8c-3.36 0-5.04 0-6.324.654a6 6 0 0 0-2.622 2.622ZM13.4 3h-2.8c-1.713 0-2.878.002-3.778.075-.877.072-1.325.202-1.638.361a4 4 0 0 0-1.748 1.748c-.16.313-.29.761-.36 1.638C3.001 7.722 3 8.887 3 10.6v2.8c0 1.713.002 2.878.075 3.778.072.877.202 1.325.361 1.638a4 4 0 0 0 1.748 1.748c.313.16.761.29 1.638.36.9.074 2.065.076 3.778.076h2.8c1.713 0 2.878-.002 3.778-.075.877-.072 1.325-.202 1.638-.361a4 4 0 0 0 1.748-1.748c.16-.313.29-.761.36-1.638.074-.9.076-2.065.076-3.778v-2.8c0-1.713-.002-2.878-.075-3.778-.072-.877-.202-1.325-.361-1.638a4 4 0 0 0-1.748-1.748c-.313-.16-.761-.29-1.638-.36C16.278 3.001 15.113 3 13.4 3Z" />
</svg>
